vendor/shopware/storefront/Resources/app/storefront/dist/assets/icon/default/pawn.svg

<svg xmlns="http://www.w3.org/2000/svg" width="24" height="24" viewBox="0 0 24 24">
  <path fill="#758CA3" fill-rule="evenodd" d="M14.9045733,8.75015009 C15.604751,8.01105981 16,7.03914367 16,6 C16,3.79092128 14.2091879,2.00010914 12.0001091,2.00010914 C9.79081214,2.00010914 8,3.79092128 8,6 C8,7.03948786 8.39551375,8.01170285 9.0961087,8.75086985 L10.0185334,9.7240797 L6.87981893,16.7033918 C6.29986957,17.9929795 6,19.3908976 6,20.8048912 L6,21.9999732 L18.001504,21.9999732 L18.001504,20.8048912 C18.001504,19.3908976 17.7016344,17.9929795 17.121685,16.7033918 L13.9826325,9.72332804 L14.9045733,8.75015009 Z M18.9457213,15.8830919 C19.6416605,17.4305972 20.001504,19.1080989 20.001504,20.8048912 L20.001504,21.9999732 C20.001504,23.1045427 19.1060735,23.9999732 18.001504,23.9999732 L6,23.9999732 C4.8954305,23.9999732 4,23.1045427 4,21.9999732 L4,20.8048912 C4,19.1080989 4.35984348,17.4305972 5.05578272,15.8830919 L7.64452837,10.1267022 C6.62524047,9.0512962 6,7.59866447 6,6 C6,2.68635178 8.68624264,0.000109136321 11.9998909,0.000109136321 C15.3137574,0.000109136321 18,2.68635178 18,6 C18,7.59813117 17.3751766,9.05032702 16.3564916,10.1256258 L18.9457213,15.8830919 Z"/>
</svg>

<svg xmlns="http://www.w3.org/2000/svg" width="24" height="24" viewBox="0 0 24 24"><path fill="#758CA3" fill-rule="evenodd" d="M14.9046 8.7502C15.6048 8.011 16 7.0392 16 6c0-2.209-1.7908-3.9999-3.9999-3.9999C9.7908 2.0001 8 3.791 8 6c0 1.0395.3955 2.0117 1.0961 2.7509l.9224.9732-3.1387 6.9793A10 10 0 0 0 6 20.8049v1.195h12.0015v-1.195a10 10 0 0 0-.8798-4.1015l-3.139-6.98.9219-.9732zm4.0411 7.1329a12 12 0 0 1 1.0558 4.9218v1.195c0 1.1046-.8954 2-2 2H6c-1.1046 0-2-.8954-2-2v-1.195a12 12 0 0 1 1.0558-4.9218l2.5887-5.7564C6.6252 9.0513 6 7.5987 6 6 6 2.6864 8.6862.0001 11.9999.0001 15.3138.0001 18 2.6864 18 6c0 1.5981-.6248 3.0503-1.6435 4.1256l2.5892 5.7575z"/></svg>
